X:9
T:Highland Whisky
R:strathspey
C:Niel Gow (1727-1807), Scotland
S:Annsofi Jonsson
Z:id:hn-strathspey-9
M:C
L:1/8
K:A
E | AA/A/ A2 A>Bc<e | BB/B/ B>c d>e f<a | AA/A/ A2 A>B c>d | (3efg a>c B2 A :|
e | c/B/A (3eAA (3fAA (3eAA | F<B B>A G<B B>d | c/B/A (3eAA (3fAA (3eAA |
(3efg a>c B2 Ae | c/B/A (3eAA (3fAA (3eAA | F<B B>A G<B B>c | A<c B<d c<e d<f |
(3efg a>c B2 A ||

